elide/concept/src/nav-instagram.svg

<svg clip-rule="evenodd" fill-rule="evenodd" stroke-linejoin="round" stroke-miterlimit="2" viewBox="0 0 100 200" xmlns="http://www.w3.org/2000/svg"><g fill-rule="nonzero"><path d="m50 3c-12.523 0-14.093.053-19.011.278-5.036.23-8.474 1.035-11.483 2.205-3.153 1.225-5.827 2.865-8.493 5.531-2.665 2.665-4.305 5.339-5.53 8.492-1.17 3.009-1.975 6.447-2.205 11.483-.225 4.918-.278 6.488-.278 19.011s.053 14.093.278 19.011c.23 5.036 1.035 8.474 2.205 11.483 1.225 3.153 2.865 5.827 5.53 8.493 2.666 2.665 5.34 4.305 8.493 5.53 3.009 1.17 6.447 1.975 11.483 2.205 4.918.225 6.488.278 19.011.278s14.093-.053 19.011-.278c5.036-.23 8.474-1.035 11.483-2.205 3.153-1.225 5.827-2.865 8.493-5.53 2.665-2.666 4.305-5.34 5.53-8.493 1.17-3.009 1.975-6.447 2.205-11.483.225-4.918.278-6.488.278-19.011s-.053-14.093-.278-19.011c-.23-5.036-1.035-8.474-2.205-11.483-1.225-3.153-2.865-5.827-5.53-8.492-2.666-2.666-5.34-4.306-8.493-5.531-3.009-1.17-6.447-1.975-11.483-2.205-4.918-.225-6.488-.278-19.011-.278zm0 10.288c12.252 0 13.704.047 18.542.267 4.318.198 6.665.911 8.225 1.517 2.007.78 3.44 1.712 4.944 3.217 1.505 1.504 2.437 2.937 3.217 4.944.606 1.56 1.32 3.907 1.517 8.225.22 4.838.267 6.29.267 18.542s-.047 13.704-.267 18.542c-.197 4.318-.911 6.665-1.517 8.225-.78 2.007-1.712 3.44-3.216 4.944-1.505 1.505-2.938 2.437-4.945 3.217-1.56.606-3.907 1.32-8.225 1.517-4.838.22-6.289.267-18.542.267s-13.704-.047-18.542-.267c-4.318-.197-6.665-.911-8.225-1.517-2.007-.78-3.44-1.712-4.945-3.217-1.504-1.504-2.436-2.937-3.216-4.944-.606-1.56-1.32-3.907-1.517-8.225-.22-4.838-.267-6.29-.267-18.542s.047-13.704.267-18.542c.197-4.318.911-6.665 1.517-8.225.78-2.007 1.712-3.44 3.216-4.944 1.505-1.505 2.938-2.437 4.945-3.217 1.56-.606 3.907-1.319 8.225-1.517 4.838-.22 6.29-.267 18.542-.267zm0 12.09c-13.598 0-24.622 11.024-24.622 24.622s11.024 24.622 24.622 24.622 24.622-11.024 24.622-24.622-11.024-24.622-24.622-24.622zm0 38.955c-7.916 0-14.333-6.417-14.333-14.333s6.417-14.333 14.333-14.333 14.333 6.417 14.333 14.333-6.417 14.333-14.333 14.333zm31.075-38.888c0-3.601-2.919-6.52-6.52-6.52s-6.52 2.919-6.52 6.52 2.919 6.52 6.52 6.52 6.52-2.919 6.52-6.52z" transform="matrix(.936171068 0 0 .936171068 3.1912386 3.1913816)"/><path d="m50 3c-12.523 0-14.093.053-19.011.278-5.036.23-8.474 1.035-11.483 2.205-3.153 1.225-5.827 2.865-8.493 5.531-2.665 2.665-4.305 5.339-5.53 8.492-1.17 3.009-1.975 6.447-2.205 11.483-.225 4.918-.278 6.488-.278 19.011s.053 14.093.278 19.011c.23 5.036 1.035 8.474 2.205 11.483 1.225 3.153 2.865 5.827 5.53 8.493 2.666 2.665 5.34 4.305 8.493 5.53 3.009 1.17 6.447 1.975 11.483 2.205 4.918.225 6.488.278 19.011.278s14.093-.053 19.011-.278c5.036-.23 8.474-1.035 11.483-2.205 3.153-1.225 5.827-2.865 8.493-5.53 2.665-2.666 4.305-5.34 5.53-8.493 1.17-3.009 1.975-6.447 2.205-11.483.225-4.918.278-6.488.278-19.011s-.053-14.093-.278-19.011c-.23-5.036-1.035-8.474-2.205-11.483-1.225-3.153-2.865-5.827-5.53-8.492-2.666-2.666-5.34-4.306-8.493-5.531-3.009-1.17-6.447-1.975-11.483-2.205-4.918-.225-6.488-.278-19.011-.278zm0 10.288c12.252 0 13.704.047 18.542.267 4.318.198 6.665.911 8.225 1.517 2.007.78 3.44 1.712 4.944 3.217 1.505 1.504 2.437 2.937 3.217 4.944.606 1.56 1.32 3.907 1.517 8.225.22 4.838.267 6.29.267 18.542s-.047 13.704-.267 18.542c-.197 4.318-.911 6.665-1.517 8.225-.78 2.007-1.712 3.44-3.216 4.944-1.505 1.505-2.938 2.437-4.945 3.217-1.56.606-3.907 1.32-8.225 1.517-4.838.22-6.289.267-18.542.267s-13.704-.047-18.542-.267c-4.318-.197-6.665-.911-8.225-1.517-2.007-.78-3.44-1.712-4.945-3.217-1.504-1.504-2.436-2.937-3.216-4.944-.606-1.56-1.32-3.907-1.517-8.225-.22-4.838-.267-6.29-.267-18.542s.047-13.704.267-18.542c.197-4.318.911-6.665 1.517-8.225.78-2.007 1.712-3.44 3.216-4.944 1.505-1.505 2.938-2.437 4.945-3.217 1.56-.606 3.907-1.319 8.225-1.517 4.838-.22 6.29-.267 18.542-.267zm0 12.09c-13.598 0-24.622 11.024-24.622 24.622s11.024 24.622 24.622 24.622 24.622-11.024 24.622-24.622-11.024-24.622-24.622-24.622zm0 38.955c-7.916 0-14.333-6.417-14.333-14.333s6.417-14.333 14.333-14.333 14.333 6.417 14.333 14.333-6.417 14.333-14.333 14.333zm31.075-38.888c0-3.601-2.919-6.52-6.52-6.52s-6.52 2.919-6.52 6.52 2.919 6.52 6.52 6.52 6.52-2.919 6.52-6.52z" fill="#7a7a8d" transform="matrix(.936171068 0 0 .936171068 3.1912386 103.1914097)"/></g></svg>

<?xml version="1.0" encoding="UTF-8" standalone="no"?>
<!DOCTYPE svg PUBLIC "-//W3C//DTD SVG 1.1//EN" "http://www.w3.org/Graphics/SVG/1.1/DTD/svg11.dtd">
<svg width="100%" height="100%" viewBox="0 0 100 200" version="1.1" xmlns="http://www.w3.org/2000/svg" xmlns:xlink="http://www.w3.org/1999/xlink" xml:space="preserve" xmlns:serif="http://www.serif.com/" style="fill-rule:evenodd;clip-rule:evenodd;stroke-linejoin:round;stroke-miterlimit:2;">
    <g transform="matrix(0.3479,0,0,0.3479,-128.292,-77.2097)">
        <g transform="matrix(2.69092,0,0,2.69092,377.934,231.104)">
            <path d="M50,3C37.477,3 35.907,3.053 30.989,3.278C25.953,3.508 22.515,4.313 19.506,5.483C16.353,6.708 13.679,8.348 11.013,11.014C8.348,13.679 6.708,16.353 5.483,19.506C4.313,22.515 3.508,25.953 3.278,30.989C3.053,35.907 3,37.477 3,50C3,62.523 3.053,64.093 3.278,69.011C3.508,74.047 4.313,77.485 5.483,80.494C6.708,83.647 8.348,86.321 11.013,88.987C13.679,91.652 16.353,93.292 19.506,94.517C22.515,95.687 25.953,96.492 30.989,96.722C35.907,96.947 37.477,97 50,97C62.523,97 64.093,96.947 69.011,96.722C74.047,96.492 77.485,95.687 80.494,94.517C83.647,93.292 86.321,91.652 88.987,88.987C91.652,86.321 93.292,83.647 94.517,80.494C95.687,77.485 96.492,74.047 96.722,69.011C96.947,64.093 97,62.523 97,50C97,37.477 96.947,35.907 96.722,30.989C96.492,25.953 95.687,22.515 94.517,19.506C93.292,16.353 91.652,13.679 88.987,11.014C86.321,8.348 83.647,6.708 80.494,5.483C77.485,4.313 74.047,3.508 69.011,3.278C64.093,3.053 62.523,3 50,3ZM50,13.288C62.252,13.288 63.704,13.335 68.542,13.555C72.86,13.753 75.207,14.466 76.767,15.072C78.774,15.852 80.207,16.784 81.711,18.289C83.216,19.793 84.148,21.226 84.928,23.233C85.534,24.793 86.248,27.14 86.445,31.458C86.665,36.296 86.712,37.748 86.712,50C86.712,62.252 86.665,63.704 86.445,68.542C86.248,72.86 85.534,75.207 84.928,76.767C84.148,78.774 83.216,80.207 81.712,81.711C80.207,83.216 78.774,84.148 76.767,84.928C75.207,85.534 72.86,86.248 68.542,86.445C63.704,86.665 62.253,86.712 50,86.712C37.747,86.712 36.296,86.665 31.458,86.445C27.14,86.248 24.793,85.534 23.233,84.928C21.226,84.148 19.793,83.216 18.288,81.711C16.784,80.207 15.852,78.774 15.072,76.767C14.466,75.207 13.752,72.86 13.555,68.542C13.335,63.704 13.288,62.252 13.288,50C13.288,37.748 13.335,36.296 13.555,31.458C13.752,27.14 14.466,24.793 15.072,23.233C15.852,21.226 16.784,19.793 18.288,18.289C19.793,16.784 21.226,15.852 23.233,15.072C24.793,14.466 27.14,13.753 31.458,13.555C36.296,13.335 37.748,13.288 50,13.288ZM50,25.378C36.402,25.378 25.378,36.402 25.378,50C25.378,63.598 36.402,74.622 50,74.622C63.598,74.622 74.622,63.598 74.622,50C74.622,36.402 63.598,25.378 50,25.378ZM50,64.333C42.084,64.333 35.667,57.916 35.667,50C35.667,42.084 42.084,35.667 50,35.667C57.916,35.667 64.333,42.084 64.333,50C64.333,57.916 57.916,64.333 50,64.333ZM81.075,25.445C81.075,21.844 78.156,18.925 74.555,18.925C70.954,18.925 68.035,21.844 68.035,25.445C68.035,29.046 70.954,31.965 74.555,31.965C78.156,31.965 81.075,29.046 81.075,25.445Z" style="fill-rule:nonzero;"/>
        </g>
        <g transform="matrix(2.69092,0,0,2.69092,377.934,518.543)">
            <path d="M50,3C37.477,3 35.907,3.053 30.989,3.278C25.953,3.508 22.515,4.313 19.506,5.483C16.353,6.708 13.679,8.348 11.013,11.014C8.348,13.679 6.708,16.353 5.483,19.506C4.313,22.515 3.508,25.953 3.278,30.989C3.053,35.907 3,37.477 3,50C3,62.523 3.053,64.093 3.278,69.011C3.508,74.047 4.313,77.485 5.483,80.494C6.708,83.647 8.348,86.321 11.013,88.987C13.679,91.652 16.353,93.292 19.506,94.517C22.515,95.687 25.953,96.492 30.989,96.722C35.907,96.947 37.477,97 50,97C62.523,97 64.093,96.947 69.011,96.722C74.047,96.492 77.485,95.687 80.494,94.517C83.647,93.292 86.321,91.652 88.987,88.987C91.652,86.321 93.292,83.647 94.517,80.494C95.687,77.485 96.492,74.047 96.722,69.011C96.947,64.093 97,62.523 97,50C97,37.477 96.947,35.907 96.722,30.989C96.492,25.953 95.687,22.515 94.517,19.506C93.292,16.353 91.652,13.679 88.987,11.014C86.321,8.348 83.647,6.708 80.494,5.483C77.485,4.313 74.047,3.508 69.011,3.278C64.093,3.053 62.523,3 50,3ZM50,13.288C62.252,13.288 63.704,13.335 68.542,13.555C72.86,13.753 75.207,14.466 76.767,15.072C78.774,15.852 80.207,16.784 81.711,18.289C83.216,19.793 84.148,21.226 84.928,23.233C85.534,24.793 86.248,27.14 86.445,31.458C86.665,36.296 86.712,37.748 86.712,50C86.712,62.252 86.665,63.704 86.445,68.542C86.248,72.86 85.534,75.207 84.928,76.767C84.148,78.774 83.216,80.207 81.712,81.711C80.207,83.216 78.774,84.148 76.767,84.928C75.207,85.534 72.86,86.248 68.542,86.445C63.704,86.665 62.253,86.712 50,86.712C37.747,86.712 36.296,86.665 31.458,86.445C27.14,86.248 24.793,85.534 23.233,84.928C21.226,84.148 19.793,83.216 18.288,81.711C16.784,80.207 15.852,78.774 15.072,76.767C14.466,75.207 13.752,72.86 13.555,68.542C13.335,63.704 13.288,62.252 13.288,50C13.288,37.748 13.335,36.296 13.555,31.458C13.752,27.14 14.466,24.793 15.072,23.233C15.852,21.226 16.784,19.793 18.288,18.289C19.793,16.784 21.226,15.852 23.233,15.072C24.793,14.466 27.14,13.753 31.458,13.555C36.296,13.335 37.748,13.288 50,13.288ZM50,25.378C36.402,25.378 25.378,36.402 25.378,50C25.378,63.598 36.402,74.622 50,74.622C63.598,74.622 74.622,63.598 74.622,50C74.622,36.402 63.598,25.378 50,25.378ZM50,64.333C42.084,64.333 35.667,57.916 35.667,50C35.667,42.084 42.084,35.667 50,35.667C57.916,35.667 64.333,42.084 64.333,50C64.333,57.916 57.916,64.333 50,64.333ZM81.075,25.445C81.075,21.844 78.156,18.925 74.555,18.925C70.954,18.925 68.035,21.844 68.035,25.445C68.035,29.046 70.954,31.965 74.555,31.965C78.156,31.965 81.075,29.046 81.075,25.445Z" style="fill:rgb(122,122,141);fill-rule:nonzero;"/>
        </g>
    </g>
</svg>
